src/icons/solid/ai/ai-chat.svg

<svg width="24" height="24" viewBox="0 0 24 24" fill="none" xmlns="http://www.w3.org/2000/svg">
<g clip-path="url(#clip0_1_3601)">
<path fill-rule="evenodd" clip-rule="evenodd" d="M19.0911 1.58161C19.0148 1.1871 18.6424 0.93692 18.251 1.0139C17.9646 1.07163 17.745 1.29294 17.6877 1.58161C17.3536 3.30399 16.0075 4.67035 14.3559 5.00713C13.9645 5.0841 13.7163 5.46899 13.7927 5.85388C13.8499 6.14255 14.0695 6.36386 14.3559 6.42159C16.0075 6.75837 17.3441 8.11511 17.6877 9.84711C17.7641 10.2416 18.146 10.4918 18.5279 10.4148C18.8143 10.3571 19.0338 10.1358 19.0911 9.84711C19.4253 8.12473 20.7714 6.75837 22.423 6.42159C22.8144 6.34462 23.0626 5.95973 22.9862 5.57484C22.9289 5.28617 22.7094 5.06486 22.423 5.00713C20.7714 4.67035 19.4348 3.31361 19.0911 1.58161ZM12.7521 4.06415C11.8547 5.03599 11.9024 6.55631 12.8571 7.4608C13.1817 7.76871 13.5826 7.9804 14.0218 8.067C14.9956 8.25944 15.8357 9.08695 16.0362 10.1646C16.2939 11.4636 17.5445 12.32 18.8334 12.0602C19.3393 11.964 19.8071 11.6946 20.1508 11.3001V16.4191C20.1508 17.747 19.0816 18.8247 17.7641 18.8247H11.0623C10.9286 18.8247 10.8045 18.8824 10.7091 18.9786L7.48225 22.5292C6.5944 23.5011 4.99054 22.866 4.99054 21.5574V18.8343H3.38669C2.06924 18.8343 1 17.7566 1 16.4287V6.47933C1 5.15146 2.06924 4.07377 3.38669 4.07377H12.733L12.7521 4.06415Z" fill="#1D1B20"/>
</g>
<defs>
<clipPath id="clip0_1_3601">
<rect width="24" height="24" fill="white"/>
</clipPath>
</defs>
</svg>

<svg xmlns="http://www.w3.org/2000/svg" width="24" height="24" fill="none" viewBox="0 0 24 24"><g clip-path="url(#a)"><path fill="currentColor" fill-rule="evenodd" d="M19.091 1.582a.71.71 0 0 0-.84-.568.72.72 0 0 0-.563.568c-.334 1.722-1.68 3.088-3.332 3.425a.72.72 0 0 0-.563.847c.057.289.277.51.563.568 1.652.336 2.988 1.693 3.332 3.425a.715.715 0 0 0 1.403 0c.334-1.722 1.68-3.089 3.332-3.425a.72.72 0 0 0 .563-.847.72.72 0 0 0-.563-.568c-1.652-.337-2.988-1.693-3.332-3.425m-6.339 2.482a2.425 2.425 0 0 0 .105 3.397c.325.308.726.52 1.165.606.974.192 1.814 1.02 2.014 2.098.258 1.299 1.508 2.155 2.797 1.895a2.34 2.34 0 0 0 1.318-.76v5.12a2.397 2.397 0 0 1-2.387 2.405h-6.702a.5.5 0 0 0-.353.154l-3.227 3.55c-.888.972-2.491.337-2.491-.972v-2.723H3.387A2.397 2.397 0 0 1 1 16.43V6.48a2.397 2.397 0 0 1 2.387-2.405h9.346z" clip-rule="evenodd"/></g><defs><clipPath id="a"><path fill="currentColor" d="M0 0h24v24H0z"/></clipPath></defs></svg>
